src/images/icon.svg

<svg xmlns="http://www.w3.org/2000/svg" xmlns:xlink="http://www.w3.org/1999/xlink" viewBox="0 0 100 125" version="1.1" x="0px" y="0px"><title>i10</title><desc>Created with Sketch.</desc><g stroke="none" stroke-width="1" fill="none" fill-rule="evenodd"><path d="M87.6951532,56.2185366 C87.6281552,62.671993 87.558065,69.3460275 71.9444317,69.3460275 C68.6883275,69.3460275 64.8230565,69.1728634 62.0720143,67.188691 C60.4331394,66.0074641 59.6250401,64.1181197 59.1838838,62.206099 C58.6942828,60.085869 58.2995098,57.8337045 58.1789134,55.6609068 C58.0985157,54.2323027 58.1964359,52.7294853 58.8787851,51.4420924 C60.7454533,47.9190267 66.7258005,46.4162094 76.4580375,46.4162094 C77.8515965,46.4162094 79.2142334,46.4409471 80.5088414,46.4646541 C80.5377021,46.4646541 80.5655321,46.4656849 80.5943928,46.4656849 C84.51017,46.5388673 87.7137065,49.3723686 87.7137065,52.7686534 C87.7137065,52.7686534 87.7003069,55.7815033 87.6951532,56.2185366 M41.2902561,60.9908578 C41.0799853,62.0710722 40.8058088,63.1347948 40.4172202,64.1387345 C40.0791378,65.0107396 39.596752,65.8178082 38.9350176,66.4836655 C36.8436484,68.5925574 33.5421916,69.0831891 30.7189977,69.2697528 C29.892345,69.3233513 29.0636309,69.3460275 28.2349169,69.3460275 C12.6212836,69.3460275 12.5511934,62.671993 12.4841953,56.2185366 C12.4790416,55.7815033 12.465642,52.7686534 12.465642,52.7686534 C12.465642,49.3723686 15.6691786,46.5388673 19.5849558,46.4656849 C19.6138165,46.4656849 19.6416464,46.4646541 19.6705071,46.4646541 C20.9640845,46.4409471 22.3277521,46.4162094 23.7213111,46.4162094 C33.453548,46.4162094 39.4328645,47.9190267 41.3005635,51.4420924 C42.2117367,53.1613649 42.1004169,55.2341809 41.8654084,57.1029106 C41.7056439,58.3748424 41.5427871,59.695219 41.2902561,60.9908578 M62.2183792,29.141025 L59.2673737,33.9226229 C58.772619,34.7245378 58.9983508,35.7058012 59.8136653,36.2964146 C60.9629392,37.1302824 62.7450868,36.8385833 63.4325897,35.7037397 L66.1052957,31.2963001 C67.036053,29.7625606 69.4582894,29.3925253 70.9786293,30.5510759 L85.7089193,42.8508834 C77.5227908,42.6375205 66.2702139,43.1023837 57.8707224,46.3852872 C51.1740116,49.0023334 48.7290989,49.1054072 42.0870173,46.3852872 C33.7215402,42.959111 22.5751294,42.49734 14.4137386,42.7488403 L29.0224014,30.5510759 C30.5417106,29.3925253 32.9649778,29.7625606 33.8947043,31.2963001 L36.5674103,35.7037397 C37.2559439,36.8385833 39.0370608,37.1302824 40.1873654,36.2964146 C41.0026799,35.7058012 41.2284117,34.7245378 40.7336571,33.9226229 L37.7816208,29.141025 C35.7912639,25.9158429 30.7839342,24.9943623 27.3567273,27.2228199 L5,42.6024754 L5,47.7623544 C6.06681479,48.5075787 7.42635943,49.9743202 8.11180082,52.8036985 C9.3373494,57.8687496 4.18365477,73.0700873 28.2349169,73.0700873 C31.5301892,73.0700873 34.9594576,72.7938492 38.0496129,71.5641777 C40.0080169,70.7849391 41.7808878,69.5676364 43.0126208,67.8380565 C44.0114068,66.4331593 44.5948051,64.7963459 44.9875166,63.1306718 C45.3338449,61.6567151 45.5162857,60.1456519 45.9048742,58.6809719 C46.2017271,57.5595279 46.6645288,56.3731474 47.694237,55.7309971 C48.8280498,55.0228794 50.6699803,54.9806191 51.8986211,55.5361874 C52.420175,55.7722266 52.8530853,56.1484463 53.1818911,56.6143403 C53.9384534,57.6904318 54.1755234,59.08296 54.4156856,60.3476767 C54.721815,61.9515065 54.9908379,63.5687358 55.5464062,65.1096905 C56.1710339,66.8433934 57.165697,68.4152703 58.5778093,69.6129889 C60.5279674,71.2683556 63.0336937,72.1145923 65.515713,72.5701789 C67.5596683,72.9453679 69.6469147,73.0700873 71.7228229,73.0700873 C95.7730542,73.0700873 90.6193596,57.8687496 91.8459389,52.8036985 C92.5406569,49.9361828 93.9270008,48.4684106 95,47.732463 L95,42.6024754 L72.6443034,27.2228199 C69.2160658,24.9943623 64.2097668,25.9158429 62.2183792,29.141025" fill="#000000"/></g><text x="0" y="115" fill="#000000" font-size="5px" font-weight="bold" font-family="'Helvetica Neue', Helvetica, Arial-Unicode, Arial, Sans-serif">Created by Icon Island</text><text x="0" y="120" fill="#000000" font-size="5px" font-weight="bold" font-family="'Helvetica Neue', Helvetica, Arial-Unicode, Arial, Sans-serif">from the Noun Project</text></svg>

<?xml version="1.0" encoding="UTF-8" standalone="no"?>
<svg
   xmlns:dc="http://purl.org/dc/elements/1.1/"
   xmlns:cc="http://creativecommons.org/ns#"
   xmlns:rdf="http://www.w3.org/1999/02/22-rdf-syntax-ns#"
   xmlns:svg="http://www.w3.org/2000/svg"
   xmlns="http://www.w3.org/2000/svg"
   xmlns:sodipodi="http://sodipodi.sourceforge.net/DTD/sodipodi-0.dtd"
   xmlns:inkscape="http://www.inkscape.org/namespaces/inkscape"
   viewBox="0 0 100 125"
   version="1.1"
   x="0px"
   y="0px"
   id="svg14"
   sodipodi:docname="icon.svg"
   inkscape:version="0.92.4 (fd57863, 2020-04-02)">
  <metadata
     id="metadata20">
    <rdf:RDF>
      <cc:Work
         rdf:about="">
        <dc:format>image/svg+xml</dc:format>
        <dc:type
           rdf:resource="http://purl.org/dc/dcmitype/StillImage" />
      </cc:Work>
    </rdf:RDF>
  </metadata>
  <defs
     id="defs18" />
  <sodipodi:namedview
     pagecolor="#ffffff"
     bordercolor="#666666"
     borderopacity="1"
     objecttolerance="10"
     gridtolerance="10"
     guidetolerance="10"
     inkscape:pageopacity="0"
     inkscape:pageshadow="2"
     inkscape:window-width="1874"
     inkscape:window-height="1016"
     id="namedview16"
     showgrid="false"
     inkscape:zoom="1.888"
     inkscape:cx="50"
     inkscape:cy="62.5"
     inkscape:window-x="46"
     inkscape:window-y="27"
     inkscape:window-maximized="1"
     inkscape:current-layer="svg14" />
  <title
     id="title2">i10</title>
  <desc
     id="desc4">Created with Sketch.</desc>
  <g
     id="g8"
     transform="translate(0.52966102,12.711864)"
     style="fill:#d45500;fill-opacity:1;fill-rule:evenodd;stroke:none;stroke-width:1">
    <path
       d="m 87.695153,56.218537 c -0.067,6.453456 -0.137088,13.127491 -15.750721,13.127491 -3.256105,0 -7.121375,-0.173165 -9.872418,-2.157337 -1.638875,-1.181227 -2.446974,-3.070571 -2.88813,-4.982592 -0.489601,-2.12023 -0.884374,-4.372394 -1.004971,-6.545192 -0.0804,-1.428604 0.01752,-2.931422 0.699872,-4.218815 1.866668,-3.523065 7.847016,-5.025883 17.579253,-5.025883 1.393558,0 2.756195,0.02474 4.050803,0.04845 0.02886,0 0.05669,0.001 0.08555,0.001 3.915777,0.07318 7.119313,2.906684 7.119313,6.302968 0,0 -0.0134,3.01285 -0.01855,3.449884 m -46.404897,4.772321 c -0.210271,1.080214 -0.484447,2.143937 -0.873036,3.147876 -0.338082,0.872006 -0.820468,1.679074 -1.482202,2.344931 -2.09137,2.108892 -5.392826,2.599524 -8.21602,2.786088 -0.826653,0.0536 -1.655367,0.07628 -2.484081,0.07628 -15.613633,0 -15.683724,-6.674035 -15.750722,-13.127491 -0.0052,-0.437034 -0.01855,-3.449884 -0.01855,-3.449884 0,-3.396284 3.203537,-6.229786 7.119314,-6.302968 0.02886,0 0.05669,-10e-4 0.08555,-10e-4 1.293577,-0.02371 2.657245,-0.04845 4.050804,-0.04845 9.732237,0 15.711553,1.502818 17.579253,5.025883 0.911173,1.719273 0.799853,3.792089 0.564844,5.660819 -0.159764,1.271931 -0.322621,2.592308 -0.575152,3.887947 M 62.218382,29.14103 59.267377,33.922628 c -0.494755,0.801915 -0.269023,1.783178 0.546291,2.373792 1.149274,0.833867 2.931422,0.542168 3.618925,-0.592675 l 2.672706,-4.40744 c 0.930757,-1.533739 3.352993,-1.903775 4.873333,-0.745224 l 14.73029,12.299807 c -8.186128,-0.213363 -19.438705,0.251501 -27.838197,3.534404 -6.69671,2.617046 -9.141623,2.72012 -15.783705,0 C 33.72154,42.959111 22.575129,42.49734 14.413739,42.74884 L 29.022401,30.551076 c 1.51931,-1.158551 3.942577,-0.788515 4.872303,0.745224 l 2.672706,4.40744 c 0.688534,1.134843 2.469651,1.426542 3.619955,0.592675 0.815315,-0.590614 1.041047,-1.571877 0.546292,-2.373792 L 37.781621,29.141025 C 35.791264,25.915843 30.783934,24.994362 27.356727,27.22282 L 5,42.602475 v 5.159879 c 1.0668148,0.745225 2.4263594,2.211966 3.1118008,5.041345 1.2255486,5.065051 -3.928146,20.266388 20.1231162,20.266388 3.295272,0 6.724541,-0.276238 9.814696,-1.505909 1.958404,-0.779239 3.731275,-1.996542 4.963008,-3.726122 0.998786,-1.404897 1.582184,-3.04171 1.974896,-4.707384 0.346328,-1.473957 0.528769,-2.98502 0.917357,-4.4497 0.296853,-1.121444 0.759655,-2.307825 1.789363,-2.949975 1.133813,-0.708118 2.975743,-0.750378 4.204384,-0.19481 0.521554,0.23604 0.954464,0.612259 1.28327,1.078153 0.756562,1.076092 0.993632,2.46862 1.233795,3.733337 0.306129,1.603829 0.575152,3.221059 1.13072,4.762013 0.624628,1.733703 1.619291,3.30558 3.031403,4.503299 1.950158,1.655367 4.455885,2.501603 6.937904,2.95719 2.043955,0.375189 4.131202,0.499908 6.20711,0.499908 24.050231,0 18.896537,-15.201337 20.123116,-20.266388 C 92.540657,49.936183 93.927001,48.468411 95,47.732463 V 42.602475 L 72.644303,27.22282 c -3.428237,-2.228458 -8.434536,-1.306977 -10.425924,1.918205"
       id="path6"
       inkscape:connector-curvature="0"
       style="fill:#d45500;fill-opacity:1" />
  </g>
</svg>
